X:1
T:Title
%%score { ( 1 3 ) | ( 2 4 ) }
L:1/8
M:4/4
K:Ab
V:1 treble nm="Grand Piano"
V:3 treble 
V:2 bass 
V:4 bass 
V:1
 z4 z2[Q:1/4=108] [CE]2 | [Ec]2 [Ec]2 [Fd]2 [Ec]2 | [=DF]4 [DB]2 [DB]2 | c2 B2 F2 G2 | %4
 [CA]6 [CE]2 | [Ec]2 [Ec]2 [Fd]2 [Ec]2 | [=DF]4 [DB]2 [DB]2 | c2 B2 F2 G2 |[M:3/4] [CA]6 | %9
[M:1/4] E2 |[M:4/4] F2 F2 G2 G2 | G4 z4 | [GB]2 [EB]2 [Ac]2 [Ec]2 | [Gd]6 [DE]2 | %14
 [Cc]2 [Ec]2 [_Ge]2 [Ge]2 |[M:9/8] .e3 z [A,FA]2- [A,FA] [DFB]2 | %16
[M:4/4] [Ec]2 [CE]2 [=DF]2 [_DG]2 |[M:3/4] [CA]6 |] %18
V:2
 z4 z2 [A,,A,]2 | [A,,A,]2 [A,,A,]2 [A,,A,]2 [A,,A,]2 | [B,,A,]4 [B,,A,]2 [B,,A,]2 | %3
 [E,G,D]2 [E,G,D]2 [E,A,D]2 [E,B,D]2 | [A,,A,]6 [A,,A,]2 | [A,,A,]2 [A,,A,]2 [A,,A,]2 [A,,A,]2 | %6
 [B,,A,]4 [B,,A,]2 [B,,A,]2 | [E,G,D]2 [E,G,D]2 [E,A,D]2 [E,B,D]2 |[M:3/4] [A,,A,]6 | %9
[M:1/4] [E,G,]2 |[M:4/4] [E,A,E]2 [E,A,E]2 [E,B,E]2 [E,B,E]2 | [E,E]4 [E,CE]2 [E,CE]2 | %12
 [E,D]2 [E,D]2 [E,E]2 [E,A,]2 | [E,B,]6 [E,G,]2 | [A,,A,]2 [A,,A,]2 [C,A,]2 [C,A,]2 | %15
[M:9/8] z2[K:treble] d- d[K:bass] D,2- D, D,2 |[M:4/4] [E,A,]2 [E,A,]2 [B,,A,]2 [E,B,]2 | %17
[M:3/4] [A,,E,A,]6 |] %18
V:3
 x8 | x8 | x8 | x8 | x8 | x8 | x8 | x8 |[M:3/4] x6 |[M:1/4] x2 |[M:4/4] x8 | z2 _C2 A2 A2 | x8 | %13
 x8 | x8 |[M:9/8] .F6 z3 |[M:4/4] x8 |[M:3/4] x6 |] %18
V:4
 x8 | x8 | x8 | x8 | x8 | x8 | x8 | x8 |[M:3/4] x6 |[M:1/4] x2 |[M:4/4] x8 | B,2 z2 z4 | x8 | x8 | %14
 x8 |[M:9/8] .[D,A,]6[K:treble][K:bass] z3 |[M:4/4] x8 |[M:3/4] x6 |] %18

